src/assets/instagram.svg

<svg width="75" height="75" viewBox="0 0 75 75" fill="none" xmlns="http://www.w3.org/2000/svg">
<path d="M37.5 22.2656C29.0186 22.2656 22.1191 29.165 22.1191 37.6465C22.1191 46.1279 29.0186 53.0273 37.5 53.0273C45.9814 53.0273 52.8809 46.1279 52.8809 37.6465C52.8809 29.165 45.9814 22.2656 37.5 22.2656ZM37.5 22.2656C29.0186 22.2656 22.1191 29.165 22.1191 37.6465C22.1191 46.1279 29.0186 53.0273 37.5 53.0273C45.9814 53.0273 52.8809 46.1279 52.8809 37.6465C52.8809 29.165 45.9814 22.2656 37.5 22.2656ZM64.0137 0H10.9863C4.92188 0 0 4.92188 0 10.9863V64.0137C0 70.0781 4.92188 75 10.9863 75H64.0137C70.0781 75 75 70.0781 75 64.0137V10.9863C75 4.92188 70.0781 0 64.0137 0ZM37.5 57.4219C26.6017 57.4219 17.7246 48.5448 17.7246 37.6465C17.7246 26.7479 26.6017 17.8711 37.5 17.8711C48.3983 17.8711 57.2754 26.7479 57.2754 37.6465C57.2754 48.5448 48.3983 57.4219 37.5 57.4219ZM61.6699 17.8711C59.2529 17.8711 57.2754 15.8936 57.2754 13.4766C57.2754 11.0596 59.2529 9.08203 61.6699 9.08203C64.0869 9.08203 66.0645 11.0596 66.0645 13.4766C66.0645 15.8936 64.0869 17.8711 61.6699 17.8711ZM37.5 22.2656C29.0186 22.2656 22.1191 29.165 22.1191 37.6465C22.1191 46.1279 29.0186 53.0273 37.5 53.0273C45.9814 53.0273 52.8809 46.1279 52.8809 37.6465C52.8809 29.165 45.9814 22.2656 37.5 22.2656ZM37.5 22.2656C29.0186 22.2656 22.1191 29.165 22.1191 37.6465C22.1191 46.1279 29.0186 53.0273 37.5 53.0273C45.9814 53.0273 52.8809 46.1279 52.8809 37.6465C52.8809 29.165 45.9814 22.2656 37.5 22.2656ZM37.5 22.2656C29.0186 22.2656 22.1191 29.165 22.1191 37.6465C22.1191 46.1279 29.0186 53.0273 37.5 53.0273C45.9814 53.0273 52.8809 46.1279 52.8809 37.6465C52.8809 29.165 45.9814 22.2656 37.5 22.2656Z" fill="#99154E"/>
</svg>

<svg width="75" height="75" fill="none" xmlns="http://www.w3.org/2000/svg"><path d="M37.5 22.266c-8.481 0-15.38 6.899-15.38 15.38 0 8.482 6.899 15.381 15.38 15.381 8.481 0 15.38-6.9 15.38-15.38 0-8.482-6.899-15.381-15.38-15.381Zm0 0c-8.481 0-15.38 6.899-15.38 15.38 0 8.482 6.899 15.381 15.38 15.381 8.481 0 15.38-6.9 15.38-15.38 0-8.482-6.899-15.381-15.38-15.381ZM64.014 0H10.986C4.922 0 0 4.922 0 10.986v53.028C0 70.078 4.922 75 10.986 75h53.028C70.078 75 75 70.078 75 64.014V10.986C75 4.922 70.078 0 64.014 0ZM37.5 57.422c-10.898 0-19.775-8.877-19.775-19.775 0-10.9 8.877-19.776 19.775-19.776 10.898 0 19.775 8.877 19.775 19.776 0 10.898-8.877 19.775-19.775 19.775Zm24.17-39.55a4.407 4.407 0 0 1-4.395-4.395 4.407 4.407 0 0 1 4.395-4.395 4.408 4.408 0 0 1 4.394 4.395 4.407 4.407 0 0 1-4.394 4.394ZM37.5 22.265c-8.481 0-15.38 6.899-15.38 15.38 0 8.482 6.899 15.381 15.38 15.381 8.481 0 15.38-6.9 15.38-15.38 0-8.482-6.899-15.381-15.38-15.381Zm0 0c-8.481 0-15.38 6.899-15.38 15.38 0 8.482 6.899 15.381 15.38 15.381 8.481 0 15.38-6.9 15.38-15.38 0-8.482-6.899-15.381-15.38-15.381Zm0 0c-8.481 0-15.38 6.899-15.38 15.38 0 8.482 6.899 15.381 15.38 15.381 8.481 0 15.38-6.9 15.38-15.38 0-8.482-6.899-15.381-15.38-15.381Z" fill="#99154E"/></svg>
